app/assets/images/general/icons/socials/instagram-modal.svg

<svg width="35" height="35" viewBox="0 0 35 35" fill="none" xmlns="http://www.w3.org/2000/svg">
<path d="M22.7159 9.31165H12.2843C10.6193 9.31165 9.26465 10.6663 9.26465 12.3313V22.7629C9.26465 24.428 10.6193 25.783 12.2843 25.783H22.7159C24.381 25.783 25.736 24.4283 25.736 22.7629V12.3313C25.736 10.6663 24.3813 9.31165 22.7159 9.31165ZM17.5001 22.9696C14.5105 22.9696 12.078 20.5372 12.078 17.5471C12.078 14.5575 14.5105 12.125 17.5001 12.125C20.4902 12.125 22.9226 14.5575 22.9226 17.5471C22.9226 20.5368 20.4898 22.9696 17.5001 22.9696ZM23.0969 13.2461C22.3892 13.2461 21.8136 12.6706 21.8136 11.9632C21.8136 11.2559 22.3892 10.6803 23.0969 10.6803C23.8042 10.6803 24.3798 11.2559 24.3798 11.9632C24.3798 12.6706 23.8042 13.2461 23.0969 13.2461Z" fill="#3FA9F5"/>
<path d="M17.4998 14.4164C15.774 14.4164 14.3687 15.8209 14.3687 17.5468C14.3687 19.2734 15.774 20.6784 17.4998 20.6784C19.2265 20.6784 20.6307 19.2734 20.6307 17.5468C20.6307 15.8213 19.2261 14.4164 17.4998 14.4164Z" fill="#3FA9F5"/>
<path d="M17.5 0C7.8354 0 0 7.8354 0 17.5C0 27.1646 7.8354 35 17.5 35C27.1646 35 35 27.1646 35 17.5C35 7.8354 27.1646 0 17.5 0ZM28.0267 22.763C28.0267 25.6918 25.6446 28.0739 22.7158 28.0739H12.2842C9.35577 28.0739 6.97325 25.6918 6.97325 22.763V12.3314C6.97325 9.40295 9.35577 7.02043 12.2842 7.02043H22.7158C25.6446 7.02043 28.0267 9.40295 28.0267 12.3314V22.763Z" fill="#3FA9F5"/>
</svg>

<svg width="35" height="35" fill="none" xmlns="http://www.w3.org/2000/svg"><path d="M22.716 9.312H12.284a3.023 3.023 0 00-3.02 3.02v10.43a3.023 3.023 0 003.02 3.021h10.432a3.024 3.024 0 003.02-3.02V12.33a3.023 3.023 0 00-3.02-3.02zM17.5 22.97a5.428 5.428 0 01-5.422-5.423 5.428 5.428 0 015.422-5.422 5.428 5.428 0 015.423 5.422A5.429 5.429 0 0117.5 22.97zm5.597-9.724a1.284 1.284 0 01-1.283-1.283c0-.707.575-1.283 1.283-1.283.707 0 1.283.576 1.283 1.283 0 .708-.576 1.283-1.283 1.283z" fill="#3FA9F5"/><path d="M17.5 14.416a3.135 3.135 0 00-3.131 3.13 3.135 3.135 0 003.13 3.132 3.135 3.135 0 003.132-3.131 3.135 3.135 0 00-3.131-3.13z" fill="#3FA9F5"/><path d="M17.5 0C7.835 0 0 7.835 0 17.5S7.835 35 17.5 35 35 27.165 35 17.5 27.165 0 17.5 0zm10.527 22.763a5.316 5.316 0 01-5.311 5.31H12.284a5.317 5.317 0 01-5.31-5.31V12.331a5.317 5.317 0 015.31-5.31h10.432a5.317 5.317 0 015.31 5.31v10.432z" fill="#3FA9F5"/></svg>
